incode-blog/public/images/email.svg

<svg width="370" height="208" viewBox="0 0 370 208" fill="none" xmlns="http://www.w3.org/2000/svg">
<path fill-rule="evenodd" clip-rule="evenodd" d="M78.9011 1.3329C73.6291 2.90499 69.1717 6.07147 65.4767 10.3503C63.5849 12.541 62.0141 14.8845 60.7448 17.2288L60.6134 17.4737C60.2684 18.1219 59.9674 18.7321 59.7092 19.2948L59.6427 19.4409L59.5594 19.4098C52.5938 16.8192 46.4126 16.67 41.0068 18.626C36.3839 20.2987 32.5374 23.4242 29.4006 27.5679C27.7188 29.7897 26.347 32.165 25.2591 34.5407L25.1467 34.7887C24.8517 35.4452 24.5963 36.0632 24.3792 36.6329L24.2681 36.9284L24.2631 36.9278C16.3856 36.051 10.0087 37.4406 5.08473 40.6974C-3.39183 46.2721 0.600639 59.4646 10.7404 59.4646H179.741C180.358 59.4646 180.836 58.9275 180.766 58.3152L180.746 58.1635C180.719 57.9703 180.674 57.6957 180.608 57.3488C180.466 56.609 180.27 55.7878 180.01 54.9051C179.27 52.3862 178.17 49.8673 176.636 47.5105C174.333 43.9714 171.254 41.1205 167.301 39.2221L167.086 39.1201C162.625 37.0343 157.234 36.2362 150.848 36.9192L150.746 36.9305L150.714 36.8432C150.454 36.1459 150.135 35.3713 149.753 34.5384C148.663 32.1616 147.29 29.785 145.607 27.5621C142.467 23.4135 138.619 20.285 133.996 18.6122L133.798 18.5415C128.508 16.6839 122.484 16.8364 115.717 19.3114L115.369 19.4406L115.397 19.5012C115.086 18.8128 114.707 18.0481 114.26 17.2261C112.984 14.8814 111.407 12.5376 109.509 10.3467C107.644 8.19315 105.563 6.30272 103.258 4.75039C103.223 4.72687 103.187 4.70552 103.149 4.68644L101.053 3.62095L100.997 3.59485C92.757 0.00542843 85.3938 -0.60317 78.9011 1.3329ZM100.147 5.47404L102.156 6.49485L102.106 6.46097C104.253 7.90627 106.199 9.67492 107.95 11.6969C109.744 13.7678 111.24 15.9903 112.449 18.2119C112.871 18.988 113.227 19.7074 113.518 20.3509L113.658 20.6659C113.701 20.7641 113.739 20.8556 113.774 20.9399L113.852 21.1321C114.059 21.6706 114.666 21.9352 115.201 21.7193C122.123 18.9256 128.12 18.6784 133.295 20.5513C137.506 22.0754 141.047 24.9539 143.963 28.8068C145.548 30.9008 146.848 33.1495 147.878 35.3979C148.239 36.1838 148.539 36.9124 148.782 37.5642L148.899 37.8834C148.923 37.9497 148.945 38.0131 148.966 38.0732L149.06 38.3562C149.208 38.8349 149.679 39.1379 150.176 39.0745C156.696 38.2428 162.065 38.9956 166.408 41.0811C170.003 42.8072 172.802 45.3989 174.908 48.6354C176.324 50.8114 177.345 53.1489 178.032 55.4866L178.102 55.7299C178.239 56.2128 178.355 56.6734 178.452 57.1073L178.515 57.4024H10.7406C2.64353 57.4024 -0.544532 46.8679 6.22028 42.419C10.8909 39.3298 17.0471 38.0621 24.8372 39.0742C25.3145 39.1362 25.768 38.86 25.9352 38.4145L26.0194 38.1605L26.0816 37.9802C26.1148 37.8853 26.1514 37.7834 26.1912 37.6749L26.2322 37.5641C26.4748 36.9127 26.7747 36.1847 27.1343 35.3993C28.1631 33.1524 29.461 30.9052 31.045 28.8126C33.9579 24.9647 37.4967 22.0892 41.7086 20.5652C46.8846 18.6924 52.8857 18.9354 59.8156 21.7199C60.351 21.9351 60.9587 21.669 61.1638 21.1297L61.241 20.9377L61.3157 20.7597C61.3688 20.6348 61.4288 20.4976 61.4956 20.3489C61.7847 19.7057 62.1384 18.9865 62.5584 18.2107C63.7608 15.9899 65.2499 13.7683 67.0376 11.6982C70.4923 7.69777 74.6295 4.75872 79.4906 3.30916C85.4324 1.53735 92.2101 2.07184 99.908 5.37067L100.147 5.47404Z" fill="#2F2D51"/>
<path fill-rule="evenodd" clip-rule="evenodd" d="M182.316 153.471C182.77 153.127 183.417 153.217 183.76 153.672C184.104 154.126 184.014 154.773 183.559 155.116C181.876 156.388 180.327 157.866 178.911 159.509C177.136 161.568 175.657 163.777 174.462 165.986C174.086 166.681 173.763 167.33 173.493 167.919L173.405 168.113C173.322 168.298 173.249 168.465 173.187 168.612L173.102 168.82C173.089 168.852 173.08 168.875 173.075 168.89C172.87 169.429 172.262 169.695 171.727 169.48C164.797 166.695 158.796 166.452 153.62 168.325C149.408 169.849 145.869 172.724 142.956 176.572C141.372 178.665 140.074 180.912 139.045 183.159C138.722 183.866 138.446 184.526 138.218 185.126L138.143 185.324C138.101 185.437 138.062 185.543 138.027 185.643L137.88 186.074L137.866 186.115C137.718 186.595 137.246 186.899 136.748 186.834C128.958 185.822 122.802 187.089 118.133 190.177C111.458 194.587 114.503 204.952 122.41 205.159L122.652 205.162H290.39L290.374 205.084C290.268 204.589 290.137 204.056 289.976 203.493L289.906 203.25C289.217 200.915 288.195 198.579 286.778 196.405C282.483 189.816 275.564 186.062 265.272 186.566C264.703 186.594 264.219 186.156 264.191 185.587C264.164 185.018 264.602 184.534 265.171 184.506C276.215 183.965 283.82 188.091 288.505 195.279C290.04 197.634 291.142 200.15 291.884 202.667C292.144 203.549 292.341 204.369 292.484 205.108L292.538 205.4C292.592 205.703 292.625 205.93 292.642 206.074C292.711 206.666 292.266 207.188 291.679 207.223L291.618 207.224H122.652C112.521 207.224 108.547 194.039 116.996 188.457C121.861 185.239 128.145 183.844 135.893 184.657L136.179 184.688L136.211 184.604C136.444 183.977 136.726 183.287 137.058 182.548L137.17 182.3C138.258 179.925 139.63 177.549 141.312 175.328C144.449 171.184 148.295 168.058 152.918 166.386C158.255 164.454 164.349 164.575 171.206 167.072L171.554 167.201L171.618 167.06C171.875 166.5 172.174 165.893 172.517 165.248L172.648 165.005C173.91 162.673 175.47 160.341 177.349 158.162C178.857 156.413 180.511 154.835 182.316 153.471Z" fill="#2F2D51"/>
<path fill-rule="evenodd" clip-rule="evenodd" d="M267.528 61.3442C273.949 59.4294 281.222 60.0037 289.353 63.4889L289.624 63.6061L289.679 63.6322L291.776 64.6977C291.813 64.7168 291.85 64.7382 291.885 64.7617C294.19 66.314 296.27 68.2044 298.136 70.358C300.033 72.5489 301.611 74.8927 302.887 77.2374C303.289 77.9772 303.636 78.6706 303.928 79.3037L303.996 79.4519L304.08 79.4203C310.954 76.852 317.066 76.6711 322.425 78.5528L322.623 78.6234C327.246 80.2963 331.094 83.4248 334.234 87.5734C335.917 89.7963 337.29 92.1729 338.379 94.5497C338.723 95.2993 339.016 96.0017 339.261 96.643L339.373 96.9418L339.475 96.9305C345.861 96.2475 351.252 97.0456 355.712 99.1314L355.927 99.2333C359.881 101.132 362.96 103.983 365.263 107.522C366.797 109.879 367.897 112.398 368.637 114.916C368.896 115.799 369.092 116.62 369.234 117.36L369.289 117.653C369.342 117.955 369.376 118.183 369.392 118.327C369.461 118.918 369.016 119.44 368.429 119.474L368.368 119.476H267.456C266.886 119.476 266.424 119.014 266.424 118.445C266.424 117.896 266.854 117.447 267.395 117.415L267.456 117.414L367.141 117.413L367.125 117.333C367.02 116.838 366.888 116.305 366.729 115.741L366.658 115.498C365.971 113.16 364.951 110.823 363.534 108.647C361.428 105.41 358.629 102.818 355.035 101.092C350.691 99.0069 345.322 98.2541 338.802 99.0858C338.326 99.1465 337.874 98.8708 337.707 98.4264L337.622 98.1724C337.564 98.0014 337.493 97.8016 337.409 97.5755C337.166 96.9237 336.865 96.1951 336.505 95.4091C335.474 93.1608 334.175 90.9121 332.59 88.8181C329.673 84.9652 326.133 82.0867 321.921 80.5626C316.746 78.6897 310.749 78.9368 303.828 81.7306C303.312 81.9387 302.728 81.7001 302.502 81.2001L302.401 80.9512L302.326 80.7731C302.272 80.6482 302.212 80.511 302.145 80.3622C301.854 79.7187 301.498 78.9993 301.075 78.2231C299.866 76.0015 298.371 73.7791 296.577 71.7082C294.902 69.7741 293.048 68.0718 291.012 66.6626L290.783 66.5061L288.774 65.4853L288.535 65.3819C280.925 62.121 274.215 61.5613 268.322 63.2603L268.117 63.3204C263.256 64.77 259.119 67.709 255.664 71.7094C253.876 73.7796 252.387 76.0012 251.185 78.222C250.765 78.9978 250.411 79.7169 250.122 80.3602L250.027 80.5745C249.997 80.643 249.969 80.7085 249.942 80.771L249.797 81.1234C249.794 81.1303 249.792 81.1361 249.79 81.141C249.585 81.6803 248.978 81.9464 248.442 81.7312C241.512 78.9467 235.511 78.7037 230.335 80.5765C226.123 82.1005 222.584 84.9759 219.672 88.8239C218.088 90.9165 216.79 93.1637 215.761 95.4105C215.437 96.1174 215.162 96.7778 214.933 97.3777L214.859 97.5754C214.817 97.6884 214.778 97.7948 214.742 97.8943L214.595 98.3251L214.582 98.3668C214.434 98.8467 213.962 99.1502 213.464 99.0855C205.674 98.0733 199.517 99.341 194.849 102.429C194.374 102.743 193.734 102.613 193.42 102.138C193.106 101.663 193.236 101.023 193.711 100.709C198.577 97.4907 204.861 96.0957 212.609 96.9087L212.895 96.9397L212.926 96.8556C213.16 96.2284 213.441 95.5385 213.773 94.7999L213.886 94.552C214.974 92.1763 216.345 89.801 218.027 87.5792C221.164 83.4354 225.011 80.31 229.634 78.6373C234.971 76.7061 241.064 76.8271 247.922 79.3239L248.269 79.4522L248.336 79.3061C248.594 78.7434 248.895 78.1332 249.24 77.4849L249.371 77.2401C250.641 74.8957 252.212 72.5523 254.103 70.3616C257.798 66.0828 262.256 62.9163 267.528 61.3442Z" fill="#2F2D51"/>
<path fill-rule="evenodd" clip-rule="evenodd" d="M231.091 103.012C232.947 103.012 234.803 103.115 236.591 103.322V42.2105C236.591 38.8422 233.841 36.0925 230.473 36.0925H70.1331C66.7648 36.0925 64.0151 38.8422 64.0151 42.2105V137.555C64.0151 140.923 66.7648 143.673 70.1331 143.673H183.522C187.131 120.644 207.032 103.012 231.091 103.012Z" fill="#00B2FD"/>
<path fill-rule="evenodd" clip-rule="evenodd" d="M231.594 38.4054C232.044 38.0565 232.691 38.1385 233.04 38.5885C233.376 39.0213 233.313 39.6368 232.907 39.9937L232.857 40.0352L154.117 101.075C151.889 102.817 148.883 102.844 146.634 101.16L146.526 101.078L67.7827 40.0352C67.3327 39.6863 67.2506 39.0386 67.5995 38.5885C67.935 38.1558 68.5468 38.0633 68.9934 38.367L69.0462 38.4054L147.793 99.4504C149.28 100.613 151.249 100.636 152.758 99.5177L152.85 99.4478L231.594 38.4054Z" fill="#2F2D51"/>
<path fill-rule="evenodd" clip-rule="evenodd" d="M114.612 74.8452C115.02 74.4482 115.673 74.4574 116.07 74.8657C116.451 75.2577 116.458 75.875 116.096 76.275L116.049 76.3238L66.5897 124.408C66.1814 124.805 65.5286 124.796 65.1316 124.388C64.7506 123.996 64.7438 123.379 65.1051 122.979L65.1522 122.93L114.612 74.8452Z" fill="#2F2D51"/>
<path fill-rule="evenodd" clip-rule="evenodd" d="M184.983 74.8651C185.364 74.4734 185.981 74.4498 186.391 74.8001L186.441 74.8458L216.756 104.37C217.164 104.768 217.173 105.42 216.775 105.828C216.394 106.22 215.777 106.244 215.367 105.893L215.317 105.848L185.002 76.3232C184.594 75.9259 184.586 75.273 184.983 74.8651Z" fill="#2F2D51"/>
<path fill-rule="evenodd" clip-rule="evenodd" d="M231.091 101.981C203.927 101.981 181.907 124.002 181.907 151.166C181.907 178.33 203.927 200.35 231.091 200.35C258.255 200.35 280.276 178.33 280.276 151.166C280.276 124.002 258.255 101.981 231.091 101.981ZM231.091 104.043C257.116 104.043 278.213 125.141 278.213 151.166C278.213 177.191 257.116 198.288 231.091 198.288C205.066 198.288 183.969 177.191 183.969 151.166C183.969 125.141 205.066 104.043 231.091 104.043Z" fill="#2F2D51"/>
<path fill-rule="evenodd" clip-rule="evenodd" d="M269.002 105.246C267.008 104.009 264.362 104.628 263.124 106.621L252.607 123.532C246.352 118.479 238.412 115.454 229.785 115.454C209.712 115.454 193.386 131.781 193.386 151.853C193.386 171.926 209.712 188.252 229.785 188.252C249.857 188.252 266.183 171.926 266.183 151.853C266.183 143.57 263.399 135.939 258.725 129.787L270.342 111.089C271.614 109.096 270.995 106.484 269.002 105.246ZM263.502 151.853C263.502 170.448 248.379 185.571 229.785 185.571C211.19 185.571 196.067 170.448 196.067 151.853C196.067 133.259 211.19 118.135 229.785 118.135C237.896 118.135 245.355 121.023 251.163 125.8L232.122 156.424L221.089 141.748C219.68 139.858 216.999 139.48 215.108 140.889C213.218 142.298 212.84 144.979 214.249 146.869L229.029 166.529C229.854 167.595 231.091 168.248 232.431 168.248C232.5 168.248 232.569 168.248 232.603 168.248C234.012 168.179 235.284 167.423 236.04 166.254L257.178 132.296C261.165 137.795 263.502 144.566 263.502 151.853Z" fill="#2F2D51"/>
</svg>

<svg width="370" height="208" fill="none" xmlns="http://www.w3.org/2000/svg"><path fill-rule="evenodd" clip-rule="evenodd" d="M78.901 1.333c-5.272 1.572-9.73 4.738-13.424 9.017a38.827 38.827 0 0 0-4.732 6.879l-.132.245a34.636 34.636 0 0 0-.904 1.82l-.066.147-.084-.031c-6.965-2.59-13.146-2.74-18.552-.784-4.623 1.673-8.47 4.798-11.606 8.942a37.31 37.31 0 0 0-4.142 6.973l-.112.248c-.295.656-.55 1.274-.768 1.844l-.11.295h-.006c-7.877-.877-14.254.513-19.178 3.77C-3.392 46.271.6 59.464 10.74 59.464h169.001c.617 0 1.095-.538 1.025-1.15l-.02-.151a17.44 17.44 0 0 0-.138-.815 26.11 26.11 0 0 0-.598-2.444c-.74-2.519-1.84-5.038-3.374-7.395-2.303-3.539-5.382-6.39-9.335-8.288l-.215-.102c-4.461-2.086-9.852-2.884-16.238-2.2l-.102.01-.032-.087a34.322 34.322 0 0 0-.961-2.305 37.41 37.41 0 0 0-4.146-6.976c-3.14-4.149-6.988-7.277-11.611-8.95l-.198-.07c-5.29-1.858-11.314-1.706-18.081.77l-.348.129.028.06a38.98 38.98 0 0 0-5.888-9.155c-1.865-2.153-3.946-4.043-6.251-5.596a.996.996 0 0 0-.109-.064l-2.096-1.065-.056-.026C92.757.005 85.394-.603 78.901 1.333zm21.246 4.141 2.009 1.02-.05-.033c2.147 1.445 4.093 3.214 5.844 5.236a36.944 36.944 0 0 1 4.499 6.515c.422.776.778 1.495 1.069 2.139l.14.315c.043.098.081.19.116.274l.078.192c.207.539.814.803 1.349.587 6.922-2.793 12.919-3.04 18.094-1.168 4.211 1.524 7.752 4.403 10.668 8.256a35.329 35.329 0 0 1 3.915 6.59c.361.787.661 1.515.904 2.167l.117.32.067.19.094.282c.148.479.619.782 1.116.718 6.52-.831 11.889-.078 16.232 2.007 3.595 1.726 6.394 4.318 8.5 7.554 1.416 2.176 2.437 4.514 3.124 6.852l.07.243c.137.483.253.943.35 1.377l.063.295H10.741c-8.097 0-11.286-10.534-4.52-14.983 4.67-3.09 10.826-4.357 18.616-3.345.477.062.931-.214 1.098-.66l.084-.254.063-.18c.033-.095.07-.197.11-.305l.04-.11c.243-.652.543-1.38.902-2.166a35.265 35.265 0 0 1 3.911-6.586c2.913-3.848 6.452-6.724 10.664-8.248 5.176-1.873 11.177-1.63 18.107 1.155a1.031 1.031 0 0 0 1.348-.59l.077-.192.075-.178a32.566 32.566 0 0 1 1.243-2.549 36.78 36.78 0 0 1 4.479-6.513c3.454-4 7.591-6.94 12.453-8.389 5.941-1.772 12.72-1.237 20.417 2.062l.239.103zM182.316 153.471a1.03 1.03 0 0 1 1.444.201 1.03 1.03 0 0 1-.201 1.444 30.179 30.179 0 0 0-4.648 4.393 36.648 36.648 0 0 0-5.418 8.41l-.088.194c-.083.185-.156.352-.218.499l-.085.208a1.345 1.345 0 0 0-.027.07 1.031 1.031 0 0 1-1.348.59c-6.93-2.785-12.931-3.028-18.107-1.155-4.212 1.524-7.751 4.399-10.664 8.247a35.29 35.29 0 0 0-3.911 6.587 32.852 32.852 0 0 0-.827 1.967l-.075.198c-.042.113-.081.219-.116.319l-.147.431-.014.041a1.03 1.03 0 0 1-1.118.719c-7.79-1.012-13.946.255-18.615 3.343-6.675 4.41-3.63 14.775 4.277 14.982l.242.003H290.39l-.016-.078a24.303 24.303 0 0 0-.398-1.591l-.07-.243c-.689-2.335-1.711-4.671-3.128-6.845-4.295-6.589-11.214-10.343-21.506-9.839a1.031 1.031 0 1 1-.101-2.06c11.044-.541 18.649 3.585 23.334 10.773 1.535 2.355 2.637 4.871 3.379 7.388.26.882.457 1.702.6 2.441l.054.292c.054.303.087.53.104.674a1.032 1.032 0 0 1-.963 1.149l-.061.001H122.652c-10.131 0-14.105-13.185-5.656-18.767 4.865-3.218 11.149-4.613 18.897-3.8l.286.031.032-.084c.233-.627.515-1.317.847-2.056l.112-.248a37.299 37.299 0 0 1 4.142-6.972c3.137-4.144 6.983-7.27 11.606-8.942 5.337-1.932 11.431-1.811 18.288.686l.348.129.064-.141c.257-.56.556-1.167.899-1.812l.131-.243a38.698 38.698 0 0 1 4.701-6.843 32.248 32.248 0 0 1 4.967-4.691zM267.528 61.344c6.421-1.915 13.694-1.34 21.825 2.145l.271.117.055.026 2.097 1.066c.037.019.074.04.109.064 2.305 1.552 4.385 3.442 6.251 5.596a39.033 39.033 0 0 1 5.792 8.946l.068.148.084-.032c6.874-2.568 12.986-2.749 18.345-.867l.198.07c4.623 1.673 8.471 4.802 11.611 8.95a37.35 37.35 0 0 1 4.145 6.977c.344.75.637 1.452.882 2.093l.112.299.102-.011c6.386-.683 11.777.115 16.237 2.2l.215.102c3.954 1.899 7.033 4.75 9.336 8.289 1.534 2.357 2.634 4.876 3.374 7.394.259.883.455 1.704.597 2.444l.055.293c.053.302.087.53.103.674a1.03 1.03 0 0 1-.963 1.147l-.061.002H267.456a1.032 1.032 0 0 1-.061-2.061l.061-.001 99.685-.001-.016-.08a25.069 25.069 0 0 0-.396-1.592l-.071-.243c-.687-2.338-1.707-4.675-3.124-6.851-2.106-3.237-4.905-5.829-8.499-7.555-4.344-2.085-9.713-2.838-16.233-2.006a1.03 1.03 0 0 1-1.095-.66l-.085-.254c-.058-.17-.129-.37-.213-.596a32.544 32.544 0 0 0-.904-2.167 35.386 35.386 0 0 0-3.915-6.59c-2.917-3.854-6.457-6.732-10.669-8.256-5.175-1.873-11.172-1.626-18.093 1.168-.516.208-1.1-.03-1.326-.53l-.101-.25-.075-.178a32.401 32.401 0 0 0-1.251-2.55 36.937 36.937 0 0 0-4.498-6.515c-1.675-1.934-3.529-3.636-5.565-5.045l-.229-.157-2.009-1.02-.239-.104c-7.61-3.261-14.32-3.82-20.213-2.122l-.205.06c-4.861 1.45-8.998 4.389-12.453 8.39a36.745 36.745 0 0 0-5.542 8.65l-.095.215-.085.196-.145.352-.007.018a1.03 1.03 0 0 1-1.348.59c-6.93-2.784-12.931-3.027-18.107-1.154-4.212 1.523-7.751 4.399-10.663 8.247a35.28 35.28 0 0 0-3.911 6.587 32.908 32.908 0 0 0-.828 1.967l-.074.197-.117.32-.147.43-.013.042a1.03 1.03 0 0 1-1.118.718c-7.79-1.012-13.947.256-18.615 3.344a1.031 1.031 0 0 1-1.138-1.72c4.866-3.218 11.15-4.613 18.898-3.8l.286.03.031-.083c.234-.628.515-1.317.847-2.056l.113-.248a37.302 37.302 0 0 1 4.141-6.973c3.137-4.144 6.984-7.269 11.607-8.942 5.337-1.93 11.43-1.81 18.288.687l.347.128.067-.146c.258-.563.559-1.173.904-1.821l.131-.245a38.903 38.903 0 0 1 4.732-6.878c3.695-4.28 8.153-7.446 13.425-9.018z" fill="#2F2D51"/><path fill-rule="evenodd" clip-rule="evenodd" d="M231.091 103.012c1.856 0 3.712.103 5.5.31V42.211c0-3.369-2.75-6.118-6.118-6.118H70.133c-3.368 0-6.118 2.75-6.118 6.117v95.345c0 3.368 2.75 6.118 6.118 6.118h113.389c3.609-23.029 23.51-40.661 47.569-40.661z" fill="#00B2FD"/><path fill-rule="evenodd" clip-rule="evenodd" d="M231.594 38.405a1.03 1.03 0 0 1 1.313 1.589l-.05.041-78.74 61.04c-2.228 1.742-5.234 1.769-7.483.085l-.108-.082-78.743-61.043a1.031 1.031 0 0 1 1.21-1.668l.053.038 78.747 61.045c1.487 1.163 3.456 1.186 4.965.068l.092-.07 78.744-61.043z" fill="#2F2D51"/><path fill-rule="evenodd" clip-rule="evenodd" d="M114.612 74.845a1.031 1.031 0 0 1 1.484 1.43l-.047.049-49.46 48.084a1.031 1.031 0 0 1-1.484-1.429l.047-.049 49.46-48.085zM184.983 74.865a1.031 1.031 0 0 1 1.408-.065l.05.046 30.315 29.524a1.03 1.03 0 0 1-1.389 1.523l-.05-.045-30.315-29.525a1.031 1.031 0 0 1-.019-1.458z" fill="#2F2D51"/><path fill-rule="evenodd" clip-rule="evenodd" d="M231.091 101.981c-27.164 0-49.184 22.021-49.184 49.185s22.02 49.184 49.184 49.184c27.164 0 49.185-22.02 49.185-49.184 0-27.164-22.021-49.185-49.185-49.185zm0 2.062c26.025 0 47.122 21.098 47.122 47.123s-21.097 47.122-47.122 47.122-47.122-21.097-47.122-47.122 21.097-47.123 47.122-47.123z" fill="#2F2D51"/><path fill-rule="evenodd" clip-rule="evenodd" d="M269.002 105.246a4.284 4.284 0 0 0-5.878 1.375l-10.517 16.911c-6.255-5.053-14.195-8.078-22.822-8.078-20.073 0-36.399 16.327-36.399 36.399 0 20.073 16.326 36.399 36.399 36.399 20.072 0 36.398-16.326 36.398-36.399 0-8.283-2.784-15.914-7.458-22.066l11.617-18.698a4.203 4.203 0 0 0-1.34-5.843zm-5.5 46.607c0 18.595-15.123 33.718-33.717 33.718-18.595 0-33.718-15.123-33.718-33.718 0-18.594 15.123-33.718 33.718-33.718 8.111 0 15.57 2.888 21.378 7.665l-19.041 30.624-11.033-14.676c-1.409-1.89-4.09-2.268-5.981-.859-1.89 1.409-2.268 4.09-.859 5.98l14.78 19.66c.825 1.066 2.062 1.719 3.402 1.719h.172a4.354 4.354 0 0 0 3.437-1.994l21.138-33.958a33.225 33.225 0 0 1 6.324 19.557z" fill="#2F2D51"/></svg>
